wp-content/themes/sayenko-erickson/public/images/about/award.svg

<?xml version="1.0" encoding="UTF-8"?>
<svg width="79px" height="57px" viewBox="0 0 79 57" version="1.1" xmlns="http://www.w3.org/2000/svg" xmlns:xlink="http://www.w3.org/1999/xlink">
    <!-- Generator: Sketch 63.1 (92452) - https://sketch.com -->
    <title>award</title>
    <desc>Created with Sketch.</desc>
    <g id="Mockups" stroke="none" stroke-width="1" fill="none" fill-rule="evenodd">
        <g id="About" transform="translate(-681.000000, -1755.000000)" fill="#E9731F" fill-rule="nonzero" stroke="#123759">
            <g id="award" transform="translate(682.000000, 1756.000000)">
                <path d="M49.56075,28.93365 C49.41555,28.48485 49.02735,28.15755 48.5604,28.08975 L42.3084,27.1812 L39.51225,21.51555 C39.3033,21.09225 38.8722,20.82435 38.4003,20.82435 C37.92825,20.82435 37.4973,21.0924 37.28835,21.51555 L34.4922,27.1812 L28.24005,28.08975 C27.77295,28.15755 27.38475,28.4847 27.23895,28.93365 C27.09315,29.38245 27.2148,29.87535 27.5526,30.20475 L32.07675,34.61475 L31.00875,40.84185 C30.9291,41.307 31.12035,41.7771 31.5021,42.0546 C31.88385,42.3318 32.38995,42.36855 32.80785,42.14895 L38.4,39.2088 L43.99215,42.14895 C44.17365,42.24435 44.3718,42.2913138 44.56905,42.2913138 C44.8263,42.2913138 45.08205,42.2115 45.29805,42.05445 C45.67995,41.77695 45.8712,41.307 45.79125,40.8417 L44.72325,34.6146 L49.2474,30.20475 C49.58505,29.8752 49.70655,29.38245 49.56075,28.93365 Z M42.52545,33.294 C42.2331,33.57885 42.0999,33.9894 42.16905,34.3917 L42.92265,38.7849 L38.97735,36.7107 C38.616,36.52095 38.1846,36.52095 37.8234,36.7107 L33.8781,38.7849 L34.63155,34.39155 C34.7007,33.98925 34.5672,33.579 34.27515,33.29415 L31.0833,30.183 L35.49435,29.54205 C35.8983,29.4834 36.2475,29.22975 36.42795,28.86375 L38.40075,24.8667 L40.37355,28.86375 C40.5543,29.2296 40.9032,29.4834 41.30715,29.54205 L45.71805,30.183 L42.52545,33.294 Z" id="Shape"></path>
                <path d="M17.56815,21.74805 C22.6239,21.74805 27.3708,18.5988 29.15205,13.5681 C29.3805,12.9225 29.04255,12.2139 28.39695,11.98545 C25.32195,10.8966 22.00845,11.06505 19.0602,12.4569 C19.8075,11.4771 20.62695,10.53495 21.52185,9.6402 C22.00605,9.156 22.00605,8.37075 21.52185,7.8867 C21.0375,7.4025 20.2524,7.4025 19.7682,7.8867 C19.1292,8.5257 18.52695,9.18765 17.95695,9.86775 C17.8212,6.1845 16.04205,2.6004 12.8139,0.30315 C12.25575,-0.0939 11.4816,0.0366 11.0847,0.59445 C9.18345,3.26625 8.4363,6.5184 8.9811,9.75195 C9.4854,12.74445 11.04165,15.3876 13.38795,17.27235 C12.9804,18.21645 12.6243,19.1775 12.3171,20.151 C12.07395,19.6071 11.79,19.07685 11.46525,18.56445 C9.70905,15.79515 6.97965,13.87545 3.77985,13.1589 C3.4593,13.08705 3.12255,13.1457 2.8449,13.3218 C2.5671,13.4979 2.3709,13.7772 2.2989,14.09805 C0.8712,20.47365 4.70775,26.82165 10.91595,28.5858 C10.88475,29.90025 10.94025,31.2159 11.0787,32.5245 C10.79115,32.2689 10.49115,32.0244 10.1772,31.79355 C7.53495,29.8515 4.2954,29.0547 1.053,29.5494 C0.3759,29.65275 -0.08895,30.2853 0.0144,30.96225 C0.50925,34.2039 2.23695,37.0587 4.8792,39.00075 C7.00965,40.56675 9.52875,41.38815 12.12405,41.38815 C12.5394,41.38815 12.95685,41.36505 13.37475,41.32275 C13.88175,42.501 14.4666,43.6536 15.1299,44.7723 C11.29365,43.5423 6.9291,44.21475 3.58695,46.95165 C3.0573,47.3856 2.9793,48.1668 3.41325,48.69675 C5.49075,51.2337 8.43195,52.8099 11.69505,53.1348 C12.1098,53.1762 12.5229,53.19645 12.93405,53.19645 C15.4665,53.19645 17.90985,52.41795 19.98465,50.95065 C21.3804,52.31895 22.90425,53.55435 24.5208,54.62175 C24.7311,54.76065 24.9684,54.8271 25.203,54.8271 C25.6056,54.8271 26.0004,54.6312 26.2389,54.2703 C26.61615,53.6988 26.4588,52.9296 25.88745,52.5522 C24.3264,51.52155 22.8576,50.32155 21.52185,48.98595 C18.5346,45.9987 16.3719,42.495 15.03,38.76015 C20.9181,36.4908 24.1938,30.0294 22.39155,23.8656 C22.1994,23.20845 21.51105,22.8315 20.85345,23.02335 C17.706,23.9436 15.10545,26.0346 13.5306,28.91085 C13.4805,29.00235 13.4352,29.09535 13.38765,29.18775 C13.39935,26.5497 13.78215,23.91315 14.53755,21.36405 C15.54585,21.6228 16.56285,21.74805 17.56815,21.74805 Z M10.8609,25.96185 C6.7542,24.43635 4.14465,20.3211 4.51605,15.95595 C6.5154,16.6956 8.20965,18.06105 9.37065,19.8921 C10.53165,21.72315 11.04465,23.83815 10.8609,25.96185 Z M6.348,37.0026 C4.6011,35.71845 3.35505,33.93435 2.7546,31.8891 C2.80725,31.88835 2.85975,31.88775 2.9124,31.88775 C7.22865,31.88775 11.0763,34.755 12.3012,38.90625 C10.16955,38.94165 8.0949,38.28675 6.348,37.0026 Z M11.9409,50.667 C9.78345,50.4522 7.8024,49.5519 6.24345,48.09795 C9.97635,45.80535 14.82525,46.2879 18.03315,49.27185 C16.21815,50.38965 14.09805,50.8815 11.9409,50.667 Z M15.70575,30.1017 C16.74705,28.2 18.35025,26.72865 20.29785,25.8621 C20.94855,30.19425 18.6084,34.46865 14.60805,36.2544 C14.2887,34.1469 14.66475,32.0034 15.70575,30.1017 Z M20.0814,14.71575 C22.03845,13.78215 24.19965,13.52655 26.286,13.96305 C24.27975,17.8575 19.8822,19.956 15.59235,19.0644 C16.56615,17.16795 18.12465,15.6495 20.0814,14.71575 Z M11.4264,9.33975 C11.0661,7.20165 11.41365,5.0535 12.4065,3.1671 C15.60015,6.1656 16.40985,10.97085 14.37495,14.85045 C12.81885,13.3935 11.78655,11.4777 11.4264,9.33975 Z" id="Shape"></path>
                <path d="M64.67595,41.38815 C67.2711,41.38815 69.79065,40.5666 71.9208,39.00075 C74.5629,37.05855 76.2909,34.2039 76.7856,30.9621 C76.88895,30.28515 76.4238,29.65275 75.747,29.54925 C71.9877,28.9752 68.35965,30.18 65.72055,32.5326 C65.85945,31.22115 65.9154,29.90265 65.88405,28.5855 C68.7894,27.762 71.25915,25.92495 72.8892,23.35425 C74.64525,20.58495 75.21765,17.29755 74.50125,14.09775 C74.35185,13.42935 73.6887,13.00935 73.02045,13.1586 C69.82065,13.875 67.0911,15.79485 65.3352,18.56415 C65.0103,19.07655 64.7265,19.60695 64.4832,20.15085 C64.17615,19.17735 63.8199,18.2163 63.41235,17.27205 C68.43195,13.2348 69.49845,5.9097 65.71575,0.59415 C65.5251,0.3261 65.2359,0.1449 64.9116,0.09045 C64.587,0.03525 64.2546,0.11205 63.98655,0.30285 C61.31475,2.2041 59.5434,5.03205 58.99845,8.26575 C58.9089,8.7978 58.8576,9.33015 58.8372,9.86055 C58.269,9.18285 57.6687,8.5233 57.0318,7.88655 C56.5476,7.40235 55.7625,7.4022 55.27815,7.88655 C54.79395,8.37075 54.79395,9.156 55.27815,9.64005 C56.17305,10.53495 56.9925,11.47695 57.73965,12.45675 C54.7917,11.06505 51.47805,10.8963 48.4032,11.9853 C47.7576,12.21375 47.41965,12.92235 47.6481,13.56795 C49.42935,18.5991 54.17565,21.7479 59.232,21.7479 C60.2367,21.7479 61.254,21.6228 62.26245,21.36405 C63.01905,23.9169 63.4017,26.5578 63.4125,29.1999 C61.92585,26.3082 59.3064,24.0057 55.94685,23.02335 C55.2894,22.83105 54.60105,23.2083 54.40875,23.8656 C53.48835,27.01305 53.84865,30.33045 55.4235,33.2067 C56.832,35.7792 59.06265,37.7208 61.7697,38.7612 C60.42765,42.49575 58.26495,45.999 55.27815,48.9861 C53.943,50.32155 52.4739,51.52125 50.91255,52.55235 C50.3412,52.92975 50.1837,53.69895 50.5611,54.27045 C50.79945,54.6315 51.19455,54.82725 51.597,54.82725 C51.8316,54.82725 52.0689,54.7608 52.2792,54.6219 C53.8965,53.55405 55.42035,52.31865 56.8161,50.9502 C58.94535,52.4535 61.41765,53.19015 63.8778,53.19015 C67.4343,53.19015 70.9632,51.6567 73.3872,48.6969 C73.59555,48.4425 73.69425,48.11565 73.6617,47.78835 C73.62915,47.4612 73.4679,47.1603 73.2135,46.9518 C70.6764,44.8743 67.482,43.9095 64.2192,44.23395 C63.3447,44.3211 62.49465,44.5008 61.67685,44.7618 C62.33745,43.64655 62.92035,42.49755 63.4257,41.3229 C63.84315,41.3652 64.26045,41.38815 64.67595,41.38815 Z M72.28515,15.95685 C72.4686,18.08055 71.9559,20.1954 70.7949,22.02645 C69.63375,23.8575 67.9395,25.22295 65.9403,25.9626 C65.5689,21.5976 68.17845,17.4822 72.28515,15.95685 Z M74.0445,31.88895 C72.8043,36.0903 68.8776,38.9721 64.4994,38.90535 C65.7396,34.704 69.66375,31.8168 74.0445,31.88895 Z M50.51415,13.96305 C52.6005,13.5264 54.7614,13.7823 56.7183,14.71575 C58.6752,15.6492 60.23385,17.16795 61.2075,19.06425 C56.9166,19.95495 52.52025,17.8575 50.51415,13.96305 Z M62.4243,14.8503 C61.4313,12.9639 61.0839,10.81575 61.4442,8.67765 C61.8045,6.5397 62.83665,4.6239 64.39275,3.16695 C66.42765,7.0464 65.61795,11.8518 62.4243,14.8503 Z M64.46445,46.70145 C66.6228,46.48665 68.7417,46.97865 70.5567,48.09675 C67.34895,51.08025 62.49975,51.5631 58.767,49.27065 C60.32595,47.81655 62.307,46.9164 64.46445,46.70145 Z M62.19105,36.255 C60.2433,35.3886 58.64025,33.91725 57.59895,32.01555 C56.55765,30.11385 56.1819,27.97035 56.5011,25.8627 C60.50145,27.64845 62.84175,31.92285 62.19105,36.255 Z" id="Shape"></path>
            </g>
        </g>
    </g>
</svg>

<svg width="79" height="57" viewBox="0 0 79 57" version="1.1" xmlns="http://www.w3.org/2000/svg"><g id="Mockups" stroke="none" stroke-width="1" fill="none" fill-rule="evenodd"><g id="About" transform="translate(-681 -1755)" fill="#E9731F" fill-rule="nonzero" stroke="#123759"><g id="award" transform="translate(682 1756)"><path d="M49.56 28.934a1.238 1.238 0 0 0-1-.844l-6.252-.909-2.796-5.665a1.24 1.24 0 0 0-2.224 0l-2.796 5.665-6.252.909a1.24 1.24 0 0 0-.687 2.115l4.524 4.41-1.068 6.227a1.24 1.24 0 0 0 1.799 1.307l5.592-2.94 5.592 2.94a1.239 1.239 0 0 0 1.8-1.307l-1.069-6.227 4.524-4.41c.338-.33.46-.823.314-1.271zm-7.035 4.36a1.24 1.24 0 0 0-.356 1.098l.754 4.393-3.946-2.074a1.24 1.24 0 0 0-1.154 0l-3.945 2.074.754-4.393a1.24 1.24 0 0 0-.357-1.098l-3.192-3.111 4.411-.641a1.24 1.24 0 0 0 .934-.678l1.973-3.997 1.973 3.997c.18.366.53.62.933.678l4.411.641-3.193 3.111z" id="Shape"/><path d="M17.568 21.748c5.056 0 9.803-3.15 11.584-8.18a1.24 1.24 0 0 0-.755-1.583 12.194 12.194 0 0 0-9.337.472 27.944 27.944 0 0 1 2.462-2.817 1.24 1.24 0 1 0-1.754-1.753c-.639.639-1.241 1.3-1.811 1.98C17.82 6.185 16.042 2.6 12.814.304a1.24 1.24 0 0 0-1.73.291 12.196 12.196 0 0 0-2.103 9.158 12.186 12.186 0 0 0 4.407 7.52 30.167 30.167 0 0 0-1.07 2.879 12.47 12.47 0 0 0-.853-1.587A12.197 12.197 0 0 0 3.78 13.16a1.24 1.24 0 0 0-1.481.939C.87 20.474 4.708 26.822 10.916 28.586c-.031 1.314.024 2.63.163 3.939a12.53 12.53 0 0 0-.902-.731 12.197 12.197 0 0 0-9.124-2.245 1.24 1.24 0 0 0-1.039 1.413 12.195 12.195 0 0 0 4.865 8.039 12.185 12.185 0 0 0 8.496 2.322 30.055 30.055 0 0 0 1.755 3.45c-3.836-1.23-8.2-.558-11.543 2.179a1.24 1.24 0 0 0-.174 1.745 12.196 12.196 0 0 0 8.282 4.438c.415.041.828.061 1.239.061a12.16 12.16 0 0 0 7.05-2.245 30.518 30.518 0 0 0 4.537 3.67 1.24 1.24 0 0 0 1.367-2.07 28.04 28.04 0 0 1-4.366-3.565A27.653 27.653 0 0 1 15.03 38.76c5.888-2.27 9.164-8.73 7.362-14.894a1.24 1.24 0 0 0-1.539-.843 12.196 12.196 0 0 0-7.322 5.888c-.05.091-.096.184-.143.277a27.98 27.98 0 0 1 1.15-7.824c1.008.259 2.025.384 3.03.384zm-6.707 4.214a9.819 9.819 0 0 1-6.345-10.006c2 .74 3.694 2.105 4.855 3.936a9.722 9.722 0 0 1 1.49 6.07zm-4.513 11.04a9.723 9.723 0 0 1-3.593-5.113l.157-.001a9.82 9.82 0 0 1 9.39 7.018 9.734 9.734 0 0 1-5.954-1.903zm5.593 13.665a9.723 9.723 0 0 1-5.698-2.57 9.819 9.819 0 0 1 11.79 1.175 9.727 9.727 0 0 1-6.092 1.395zm3.765-20.565a9.725 9.725 0 0 1 4.592-4.24 9.819 9.819 0 0 1-5.69 10.392 9.725 9.725 0 0 1 1.098-6.152zm4.375-15.386a9.723 9.723 0 0 1 6.205-.753 9.818 9.818 0 0 1-10.694 5.101 9.725 9.725 0 0 1 4.49-4.348zM11.426 9.34a9.721 9.721 0 0 1 .98-6.173 9.819 9.819 0 0 1 1.969 11.683 9.722 9.722 0 0 1-2.949-5.51zm53.25 32.048c2.595 0 5.115-.821 7.245-2.387a12.195 12.195 0 0 0 4.865-8.039 1.24 1.24 0 0 0-1.039-1.413 12.254 12.254 0 0 0-10.026 2.984c.138-1.312.194-2.63.163-3.948a12.185 12.185 0 0 0 7.005-5.23 12.196 12.196 0 0 0 1.612-9.257 1.24 1.24 0 0 0-1.48-.94 12.2 12.2 0 0 0-7.686 5.406 12.473 12.473 0 0 0-.852 1.587 30.144 30.144 0 0 0-1.07-2.879C68.431 13.235 69.497 5.91 65.715.594a1.238 1.238 0 0 0-1.73-.291 12.197 12.197 0 0 0-4.988 7.963c-.09.532-.14 1.064-.16 1.595a30.466 30.466 0 0 0-1.806-1.974 1.24 1.24 0 0 0-1.754 1.753 27.94 27.94 0 0 1 2.462 2.817 12.193 12.193 0 0 0-9.337-.472 1.24 1.24 0 0 0-.755 1.583c1.781 5.031 6.528 8.18 11.584 8.18 1.005 0 2.022-.125 3.03-.384a27.986 27.986 0 0 1 1.15 7.836 12.24 12.24 0 0 0-7.465-6.177 1.24 1.24 0 0 0-1.538.843 12.195 12.195 0 0 0 1.014 9.34 12.183 12.183 0 0 0 6.347 5.555 27.658 27.658 0 0 1-6.492 10.225 28.033 28.033 0 0 1-4.365 3.566 1.24 1.24 0 0 0 1.366 2.07 30.509 30.509 0 0 0 4.537-3.672 12.22 12.22 0 0 0 7.062 2.24 12.26 12.26 0 0 0 9.51-4.493 1.24 1.24 0 0 0-.175-1.745 12.199 12.199 0 0 0-8.994-2.718 12.4 12.4 0 0 0-2.542.528 30.044 30.044 0 0 0 1.749-3.44c.417.043.834.066 1.25.066zm7.61-25.431a9.724 9.724 0 0 1-1.491 6.07 9.723 9.723 0 0 1-4.855 3.936 9.818 9.818 0 0 1 6.345-10.006zm1.758 15.932c-1.24 4.201-5.166 7.083-9.545 7.016a9.816 9.816 0 0 1 9.546-7.016zm-23.53-17.926a9.721 9.721 0 0 1 6.204.753 9.723 9.723 0 0 1 4.49 4.348 9.818 9.818 0 0 1-10.694-5.1zm11.91.887a9.72 9.72 0 0 1-.98-6.172 9.723 9.723 0 0 1 2.949-5.511 9.82 9.82 0 0 1-1.969 11.683zm2.04 31.851a9.721 9.721 0 0 1 6.093 1.396 9.82 9.82 0 0 1-11.79 1.174 9.723 9.723 0 0 1 5.697-2.57zm-2.273-10.446a9.723 9.723 0 0 1-4.592-4.24 9.724 9.724 0 0 1-1.098-6.152 9.82 9.82 0 0 1 5.69 10.392z" id="Shape"/></g></g></g></svg>
